;FLAVOR:Marlin
;TIME:2295
;Filament used: 10.2539m
;Layer height: 0.5
;MINX:254.603
;MINY:228.872
;MINZ:0.5
;MAXX:345.439
;MAXY:371.128
;MAXZ:20
;Generated with Cura_SteamEngine 4.4.1
M82 ;absolute extrusion mode
M82 ;absolute extrusion mode
G21 ;metric values
G90 ;absolute positioning
M107 ;start with the fan off
M104 S245 ; Wait for nozzle temp
G28 ;move to endstops
G29
G1 X0 Y4 Z5 F3000
M109 S245 ; Wait for nozzle temp
G92 E0 ;zero the extruded length
G1 E60 F200 ;extrude 3mm of feed stock
G92 E0 ;zero the extruded length again
M117 Printing...
G92 E0
G92 E0
G1 F1500 E-2
;LAYER_COUNT:40
;LAYER:0
M107
G1 F600 Z1.5
;MESH:3.stl
G0 F3600 X318.581 Y305.816 Z1.5
;TYPE:WALL-INNER
G1 F600 Z0.5
G1 F1500 E0
G1 F1200 X318.407 Y307.484 E0.27889
G1 X320.249 Y308.386 E0.61998
G1 X321.333 Y308.939 E0.82235
G1 X322.357 Y309.496 E1.0162
G1 X323.324 Y310.059 E1.20229
G1 X324.257 Y310.639 E1.38498
G1 X325.152 Y311.239 E1.56417
G1 X326.005 Y311.854 E1.73905
G1 X326.786 Y312.454 E1.90284
G1 X327.579 Y313.101 E2.07304
G1 X328.308 Y313.735 E2.2337
G1 X329.019 Y314.395 E2.39503
G1 X329.679 Y315.049 E2.54955
G1 X330.328 Y315.734 E2.70648
G1 X330.932 Y316.412 E2.85748
G1 X331.512 Y317.108 E3.00815
G1 X332.072 Y317.825 E3.15944
G1 X332.584 Y318.532 E3.30461
G1 X333.076 Y319.26 E3.45073
G1 X333.597 Y320.09 E3.6137
G1 X334.062 Y320.878 E3.76586
G1 X334.956 Y322.572 E4.0844
G1 X335.69 Y324.214 E4.38351
G1 X336.31 Y325.89 E4.68069
G1 X336.817 Y327.595 E4.9765
G1 X337.224 Y329.373 E5.27983
G1 X337.514 Y331.198 E5.58714
G1 X337.618 Y332.141 E5.74491
G1 X337.695 Y333.136 E5.91087
G1 X337.742 Y334.117 E6.0742
G1 X337.762 Y335.11 E6.23937
G1 X337.703 Y337.124 E6.57444
G1 X337.525 Y339.087 E6.90223
G1 X337.233 Y341.009 E7.22553
G1 X336.816 Y342.939 E7.5539
G1 X336.281 Y344.836 E7.88167
G1 X335.614 Y346.759 E8.22016
G1 X335.242 Y347.689 E8.38674
G1 X334.806 Y348.682 E8.56709
G1 X334.354 Y349.636 E8.74265
G1 X333.87 Y350.585 E8.91981
G1 X333.339 Y351.558 E9.10414
G1 X332.767 Y352.543 E9.29357
G1 X331.752 Y354.118 E9.60517
G1 X330.636 Y355.658 E9.92145
G1 X329.451 Y357.11 E10.23312
G1 X328.222 Y358.454 E10.53599
G1 X326.85 Y359.788 E10.85423
G1 X325.429 Y361.026 E11.16765
G1 X323.876 Y362.232 E11.49464
G1 X323.081 Y362.795 E11.65664
G1 X322.232 Y363.359 E11.82615
G1 X321.372 Y363.897 E11.99485
G1 X320.442 Y364.447 E12.17453
G1 X319.52 Y364.961 E12.35007
G1 X318.564 Y365.464 E12.52972
G1 X317.476 Y365.993 E12.73091
G1 X316.371 Y366.497 E12.93288
G1 X315.291 Y366.957 E13.1281
G1 X314.18 Y367.398 E13.32688
G1 X312 Y368.165 E13.7112
G1 X309.754 Y368.826 E14.10055
G1 X307.527 Y369.355 E14.48121
G1 X305.248 Y369.773 E14.86653
G1 X302.92 Y370.073 E15.25688
G1 X300.495 Y370.259 E15.66135
G1 X298.014 Y370.326 E16.07409
G1 X296.651 Y370.304 E16.30078
G1 X295.315 Y370.252 E16.52313
G1 X294.04 Y370.173 E16.73557
G1 X292.748 Y370.06 E16.95125
G1 X291.507 Y369.922 E17.1589
G1 X290.332 Y369.759 E17.35618
G1 X289.181 Y369.565 E17.55029
G1 X288.047 Y369.34 E17.74255
G1 X285.86 Y368.816 E18.11654
G1 X283.761 Y368.196 E18.48052
G1 X281.757 Y367.478 E18.83453
G1 X279.801 Y366.657 E19.18731
G1 X277.948 Y365.755 E19.53003
G1 X276.138 Y364.745 E19.87473
G1 X274.379 Y363.629 E20.22116
G1 X272.667 Y362.409 E20.57076
G1 X270.991 Y361.07 E20.92751
G1 X269.496 Y359.737 E21.2606
G1 X268.052 Y358.294 E21.60009
G1 X267.371 Y357.555 E21.76721
G1 X266.688 Y356.769 E21.94038
G1 X266.057 Y356.004 E22.10529
G1 X265.404 Y355.166 E22.28197
G1 X264.81 Y354.359 E22.44861
G1 X264.192 Y353.466 E22.62921
G1 X263.618 Y352.586 E22.80393
G1 X263.057 Y351.677 E22.98157
G1 X262.503 Y350.724 E23.16489
G1 X261.968 Y349.741 E23.35101
G1 X261.449 Y348.72 E23.54148
G1 X260.963 Y347.696 E23.72998
G1 X260.469 Y346.579 E23.93309
G1 X260.01 Y345.471 E24.13253
G1 X259.555 Y344.29 E24.34301
G1 X259.129 Y343.09 E24.55477
G1 X258.736 Y341.872 E24.76761
G1 X258.354 Y340.569 E24.99342
G1 X257.998 Y339.244 E25.22158
G1 X257.664 Y337.886 E25.45415
G1 X257.413 Y336.75 E25.64762
G1 X257.352 Y336.473 E25.69479
G1 X257.302 Y336.223 E25.73719
G1 X257.581 Y336.173 E25.77273
G1 X272.077 Y333.58 E28.22169
G1 X272.079 Y333.594 E28.22404
G1 X272.302 Y334.818 E28.43094
G1 X272.55 Y336.012 E28.63374
G1 X272.823 Y337.178 E28.83289
G1 X273.121 Y338.315 E29.02837
G1 X273.449 Y339.43 E29.22165
G1 X273.799 Y340.513 E29.41092
G1 X274.169 Y341.553 E29.59449
G1 X274.55 Y342.544 E29.77106
G1 X274.951 Y343.492 E29.94224
G1 X275.37 Y344.39 E30.10703
G1 X275.8 Y345.243 E30.26589
G1 X276.243 Y346.063 E30.42088
G1 X276.699 Y346.847 E30.57171
G1 X277.168 Y347.594 E30.71839
G1 X277.655 Y348.31 E30.8624
G1 X278.643 Y349.627 E31.1362
G1 X279.696 Y350.858 E31.40559
G1 X280.803 Y351.974 E31.667
G1 X282.066 Y353.09 E31.94729
G1 X283.385 Y354.102 E32.22376
G1 X284.752 Y355.006 E32.49631
G1 X286.173 Y355.807 E32.76758
G1 X287.659 Y356.511 E33.04103
G1 X289.209 Y357.117 E33.3178
G1 X290.842 Y357.625 E33.6022
G1 X292.543 Y358.032 E33.89307
G1 X293.461 Y358.201 E34.04829
G1 X294.389 Y358.337 E34.20427
G1 X295.342 Y358.442 E34.36371
G1 X296.319 Y358.52 E34.52671
G1 X297.324 Y358.571 E34.69405
G1 X298.363 Y358.593 E34.86688
G1 X299.411 Y358.573 E35.04119
G1 X300.424 Y358.522 E35.20987
G1 X301.407 Y358.443 E35.37387
G1 X302.362 Y358.337 E35.53366
G1 X303.29 Y358.202 E35.68961
G1 X304.197 Y358.032 E35.84308
G1 X305.875 Y357.626 E36.13018
G1 X307.489 Y357.119 E36.41152
G1 X309.014 Y356.514 E36.68436
G1 X310.469 Y355.813 E36.95294
G1 X311.854 Y355.018 E37.21852
G1 X313.181 Y354.121 E37.48489
G1 X314.455 Y353.118 E37.75453
G1 X315.666 Y352.019 E38.02649
G1 X316.302 Y351.373 E38.17725
G1 X316.887 Y350.736 E38.32108
G1 X317.441 Y350.092 E38.46235
G1 X317.971 Y349.431 E38.60325
G1 X318.907 Y348.12 E38.87113
G1 X319.725 Y346.765 E39.13435
G1 X320.439 Y345.367 E39.3954
G1 X321.045 Y343.921 E39.65614
G1 X321.547 Y342.412 E39.92061
G1 X321.949 Y340.841 E40.19028
G1 X322.243 Y339.184 E40.47015
G1 X322.349 Y338.291 E40.61969
G1 X322.424 Y337.4 E40.76839
G1 X322.474 Y336.485 E40.92078
G1 X322.495 Y335.537 E41.07848
G1 X322.47 Y334.433 E41.26212
G1 X322.414 Y333.378 E41.43781
G1 X322.33 Y332.362 E41.60735
G1 X322.216 Y331.388 E41.77043
G1 X322.073 Y330.451 E41.92806
G1 X321.895 Y329.55 E42.08079
G1 X321.471 Y327.916 E42.36153
G1 X320.95 Y326.367 E42.63331
G1 X320.332 Y324.935 E42.89268
G1 X319.625 Y323.585 E43.14611
G1 X318.825 Y322.32 E43.39502
G1 X317.925 Y321.119 E43.64461
G1 X316.925 Y319.981 E43.89654
G1 X315.801 Y318.898 E44.15611
G1 X314.558 Y317.873 E44.42404
G1 X313.869 Y317.366 E44.5663
G1 X313.156 Y316.879 E44.70989
G1 X311.323 Y315.761 E45.06695
G1 X309.442 Y314.752 E45.42192
G1 X307.529 Y313.865 E45.77259
G1 X305.588 Y313.101 E46.11948
G1 X303.605 Y312.454 E46.46637
G1 X301.574 Y311.916 E46.81577
G1 X299.494 Y311.494 E47.16873
G1 X298.4 Y311.324 E47.35284
G1 X297.306 Y311.186 E47.53622
G1 X296.195 Y311.078 E47.72185
G1 X295.069 Y311 E47.90955
G1 X293.926 Y310.95 E48.09981
G1 X292.763 Y310.929 E48.29325
G1 X291.851 Y310.936 E48.44492
G1 X291.026 Y310.984 E48.58235
G1 X289.519 Y299.163 E50.56411
G1 X289.507 Y299.064 E50.58069
G1 X289.475 Y298.817 E50.62211
G1 X290.16 Y298.98 E50.69881
G1 X290.257 Y299.001 E50.71412
G1 X291.315 Y299.235 E50.89432
G1 X292.44 Y299.467 E51.08534
G1 X294.553 Y299.841 E51.4422
G1 X296.55 Y300.115 E51.77741
G1 X298.422 Y300.281 E52.08995
G1 X300.16 Y300.339 E52.37914
G1 X301.297 Y300.318 E52.56825
G1 X302.386 Y300.267 E52.74955
G1 X303.446 Y300.187 E52.92633
G1 X304.479 Y300.078 E53.09908
G1 X305.485 Y299.942 E53.2679
G1 X306.471 Y299.773 E53.43426
G1 X308.311 Y299.358 E53.74794
G1 X310.085 Y298.837 E54.05542
G1 X311.779 Y298.217 E54.35541
G1 X313.399 Y297.495 E54.65036
G1 X314.96 Y296.672 E54.94382
G1 X316.461 Y295.746 E55.23712
G1 X317.919 Y294.703 E55.53524
G1 X319.329 Y293.544 E55.83877
G1 X320.695 Y292.271 E56.14929
G1 X321.986 Y290.891 E56.46355
G1 X323.157 Y289.472 E56.76951
G1 X324.208 Y288.013 E57.06854
G1 X325.137 Y286.515 E57.36168
G1 X325.959 Y284.965 E57.65345
G1 X326.68 Y283.362 E57.94575
G1 X327.298 Y281.692 E58.24188
G1 X327.816 Y279.943 E58.54523
G1 X328.23 Y278.125 E58.8553
G1 X328.401 Y277.145 E59.02074
G1 X328.536 Y276.156 E59.18674
G1 X328.644 Y275.143 E59.35615
G1 X328.723 Y274.104 E59.52944
G1 X328.774 Y273.04 E59.70659
G1 X328.798 Y271.941 E59.88939
G1 X328.778 Y270.809 E60.07768
G1 X328.725 Y269.705 E60.26148
G1 X328.642 Y268.628 E60.44112
G1 X328.529 Y267.574 E60.61741
G1 X328.387 Y266.54 E60.79098
G1 X328.21 Y265.523 E60.96265
G1 X327.775 Y263.61 E61.2889
G1 X327.226 Y261.748 E61.61173
G1 X326.565 Y259.956 E61.92937
G1 X325.792 Y258.228 E62.24418
G1 X324.905 Y256.547 E62.56026
G1 X323.9 Y254.918 E62.87857
G1 X322.768 Y253.332 E63.20262
G1 X322.135 Y252.533 E63.37214
G1 X321.485 Y251.762 E63.53984
G1 X320.801 Y251.001 E63.71
G1 X320.081 Y250.245 E63.88362
G1 X319.331 Y249.52 E64.05709
G1 X318.572 Y248.824 E64.22835
G1 X317.051 Y247.557 E64.55755
G1 X315.479 Y246.412 E64.88097
G1 X313.874 Y245.403 E65.19625
G1 X312.223 Y244.516 E65.50793
G1 X310.524 Y243.74 E65.81855
G1 X308.768 Y243.082 E66.1304
G1 X306.945 Y242.532 E66.44706
G1 X305.06 Y242.094 E66.76889
G1 X304.054 Y241.916 E66.93879
G1 X303.043 Y241.773 E67.10859
G1 X302.01 Y241.66 E67.28141
G1 X300.957 Y241.579 E67.45704
G1 X299.881 Y241.525 E67.6362
G1 X298.775 Y241.502 E67.82017
G1 X297.715 Y241.521 E67.99648
G1 X296.69 Y241.57 E68.16713
G1 X295.695 Y241.647 E68.3331
G1 X294.726 Y241.751 E68.49517
G1 X293.783 Y241.883 E68.65352
G1 X292.863 Y242.046 E68.8089
G1 X291.145 Y242.443 E69.10213
G1 X289.478 Y242.944 E69.3916
G1 X287.889 Y243.545 E69.67412
G1 X286.351 Y244.248 E69.95535
G1 X284.864 Y245.052 E70.23647
G1 X283.409 Y245.977 E70.52319
G1 X281.986 Y247.023 E70.81689
G1 X280.607 Y248.181 E71.11636
G1 X280.001 Y248.732 E71.25256
G1 X279.411 Y249.321 E71.3912
G1 X278.831 Y249.951 E71.53361
G1 X278.259 Y250.622 E71.68024
G1 X277.696 Y251.332 E71.83093
G1 X277.139 Y252.076 E71.98549
G1 X276.583 Y252.871 E72.14683
G1 X276.034 Y253.723 E72.31538
G1 X275.496 Y254.631 E72.4909
G1 X274.962 Y255.604 E72.67548
G1 X274.437 Y256.633 E72.86759
G1 X273.927 Y257.706 E73.06516
G1 X273.441 Y258.813 E73.26621
G1 X272.986 Y259.948 E73.46957
G1 X272.551 Y261.12 E73.67746
G1 X272.141 Y262.321 E73.88851
G1 X271.755 Y263.545 E74.10194
G1 X271.392 Y264.785 E74.31681
G1 X271.053 Y266.046 E74.53396
G1 X270.738 Y267.328 E74.7535
G1 X270.403 Y268.851 E75.01283
G1 X255.807 Y266.92 E77.4613
G1 X255.489 Y266.878 E77.51465
G1 X255.508 Y266.718 E77.54144
G1 X255.551 Y266.4 E77.59481
G1 X255.686 Y265.429 E77.75784
G1 X255.889 Y264.159 E77.97172
G1 X256.118 Y262.921 E78.18109
G1 X256.373 Y261.712 E78.38657
G1 X256.655 Y260.518 E78.5906
G1 X256.952 Y259.405 E78.78217
G1 X257.276 Y258.316 E78.97112
G1 X258.016 Y256.159 E79.35035
G1 X258.829 Y254.123 E79.71493
G1 X259.737 Y252.165 E80.07386
G1 X260.722 Y250.314 E80.42255
G1 X261.821 Y248.49 E80.77669
G1 X262.985 Y246.772 E81.12179
G1 X264.276 Y245.08 E81.47573
G1 X265.662 Y243.451 E81.83142
G1 X267.155 Y241.876 E82.19232
G1 X268.771 Y240.336 E82.56355
G1 X270.444 Y238.91 E82.92912
G1 X272.154 Y237.598 E83.28756
G1 X273.925 Y236.384 E83.64463
G1 X275.73 Y235.284 E83.99615
G1 X277.602 Y234.28 E84.34941
G1 X279.548 Y233.369 E84.70674
G1 X281.548 Y232.555 E85.06583
G1 X283.62 Y231.841 E85.43029
G1 X285.814 Y231.216 E85.80967
G1 X288.103 Y230.684 E86.20048
G1 X289.307 Y230.453 E86.40436
G1 X290.524 Y230.257 E86.60935
G1 X291.8 Y230.088 E86.82341
G1 X293.072 Y229.952 E87.03615
G1 X294.438 Y229.838 E87.2641
G1 X295.79 Y229.755 E87.48937
G1 X297.205 Y229.701 E87.72485
G1 X298.649 Y229.673 E87.96504
G1 X300.124 Y229.696 E88.21036
G1 X301.563 Y229.747 E88.44982
G1 X302.982 Y229.83 E88.6862
G1 X304.348 Y229.942 E88.91413
G1 X305.698 Y230.082 E89.13984
G1 X307.002 Y230.252 E89.35853
G1 X308.25 Y230.449 E89.56864
G1 X309.486 Y230.678 E89.77769
G1 X310.702 Y230.936 E89.98441
G1 X311.865 Y231.209 E90.18308
G1 X314.147 Y231.839 E90.57677
G1 X316.328 Y232.567 E90.95915
G1 X318.426 Y233.384 E91.33357
G1 X320.476 Y234.31 E91.70765
G1 X322.44 Y235.324 E92.07523
G1 X324.378 Y236.455 E92.44838
G1 X326.236 Y237.671 E92.81766
G1 X328.044 Y238.998 E93.19063
G1 X329.852 Y240.473 E93.57867
G1 X331.597 Y242.046 E93.96936
G1 X332.495 Y242.929 E94.1788
G1 X333.38 Y243.841 E94.39014
G1 X334.187 Y244.714 E94.58784
G1 X334.978 Y245.613 E94.78698
G1 X335.736 Y246.521 E94.98368
G1 X336.444 Y247.422 E95.17424
G1 X337.764 Y249.254 E95.54975
G1 X338.937 Y251.081 E95.91082
G1 X340.005 Y252.959 E96.2701
G1 X340.959 Y254.881 E96.62694
G1 X341.791 Y256.815 E96.97706
G1 X342.521 Y258.802 E97.3291
G1 X343.146 Y260.861 E97.68694
G1 X343.666 Y262.968 E98.04784
G1 X344.079 Y265.141 E98.41569
G1 X344.247 Y266.293 E98.60929
G1 X344.381 Y267.435 E98.80051
G1 X344.49 Y268.632 E99.00039
G1 X344.566 Y269.812 E99.19704
G1 X344.616 Y271.035 E99.40059
G1 X344.638 Y272.268 E99.60567
G1 X344.614 Y273.641 E99.83404
G1 X344.561 Y274.945 E100.05107
G1 X344.477 Y276.206 E100.26124
G1 X344.362 Y277.454 E100.46967
G1 X344.223 Y278.611 E100.66346
G1 X344.049 Y279.746 E100.85442
G1 X343.843 Y280.86 E101.04282
G1 X343.612 Y281.928 E101.22453
G1 X343.366 Y282.943 E101.39821
G1 X343.081 Y283.979 E101.5769
G1 X342.793 Y284.91 E101.73897
G1 X342.462 Y285.875 E101.90862
G1 X342.124 Y286.775 E102.0685
G1 X341.752 Y287.687 E102.2323
G1 X341.372 Y288.537 E102.38714
G1 X340.95 Y289.407 E102.54794
G1 X340.523 Y290.226 E102.70154
G1 X340.062 Y291.045 E102.85784
G1 X339.596 Y291.82 E103.00822
G1 X339.097 Y292.594 E103.16137
G1 X338.574 Y293.35 E103.31425
G1 X338.018 Y294.101 E103.46964
G1 X336.923 Y295.456 E103.75936
G1 X335.753 Y296.741 E104.04837
G1 X334.53 Y297.936 E104.33272
G1 X333.233 Y299.062 E104.61836
G1 X331.871 Y300.108 E104.90395
G1 X330.396 Y301.112 E105.20068
G1 X328.853 Y302.032 E105.49943
G1 X327.191 Y302.896 E105.81094
G1 X326.329 Y303.303 E105.96946
G1 X325.449 Y303.684 E106.12893
G1 X324.533 Y304.049 E106.29291
G1 X323.576 Y304.397 E106.46226
G1 X322.563 Y304.734 E106.6398
G1 X321.56 Y305.039 E106.81414
G1 X320.501 Y305.333 E106.99691
G1 X318.581 Y305.816 E107.32616
G0 F3600 X319.319 Y306.455
;TYPE:WALL-OUTER
G1 F1200 X319.261 Y307.011 E107.41912
G1 X319.556 Y307.155 E107.47372
G1 X320.612 Y307.673 E107.66932
G1 X321.706 Y308.231 E107.87355
G1 X322.739 Y308.793 E108.06912
G1 X323.737 Y309.374 E108.26116
G1 X324.702 Y309.974 E108.45013
G1 X325.609 Y310.582 E108.63172
G1 X326.473 Y311.205 E108.80886
G1 X327.292 Y311.834 E108.9806
G1 X328.095 Y312.489 E109.15293
G1 X328.843 Y313.139 E109.31772
G1 X329.564 Y313.809 E109.48141
G1 X330.26 Y314.499 E109.64439
G1 X330.909 Y315.184 E109.80132
G1 X331.546 Y315.899 E109.96056
G1 X332.136 Y316.606 E110.1137
G1 X332.703 Y317.333 E110.26702
G1 X333.247 Y318.084 E110.42124
G1 X333.747 Y318.824 E110.56976
G1 X334.275 Y319.665 E110.7349
G1 X334.77 Y320.505 E110.89704
G1 X335.673 Y322.217 E111.21892
G1 X336.431 Y323.911 E111.52755
G1 X337.071 Y325.641 E111.83431
G1 X337.592 Y327.393 E112.13828
G1 X338.009 Y329.214 E112.44895
G1 X338.307 Y331.092 E112.76517
G1 X338.416 Y332.079 E112.93031
G1 X338.493 Y333.074 E113.09627
G1 X338.542 Y334.101 E113.26726
G1 X338.562 Y335.117 E113.43625
G1 X338.502 Y337.17 E113.77781
G1 X338.32 Y339.18 E114.11344
G1 X338.02 Y341.154 E114.44549
G1 X337.593 Y343.131 E114.78185
G1 X337.044 Y345.078 E115.11826
G1 X336.363 Y347.04 E115.46364
G1 X335.975 Y348.011 E115.63753
G1 X335.539 Y349.004 E115.81789
G1 X335.077 Y349.979 E115.99731
G1 X334.572 Y350.968 E116.18198
G1 X334.031 Y351.96 E116.36989
G1 X333.45 Y352.96 E116.56222
G1 X332.411 Y354.574 E116.88144
G1 X331.273 Y356.143 E117.20377
